!!!COM: Anon.
!!!OTL: I Desire To Take You With Me
!!!ODT: <1918//
!!!MPN: Matsiwirus [Pine Wood, Pan]
!!!MLC: Fort Berthold Reservation, North Dakota, United States of America
!! Song was recorded during either the summer of 1912, 1915, or 1918.
!!!AGN: monody
!!!AST: Hidatsa Stone Hammer Society
!!!AMT: irregular
!!!RWG: Transcribed pitches, durations, and meters are only approximate.
!! Drum Tempo: MM104
!! Drum-rhythm: (4 4 4 4)
**kern
*ICvox
*Imale
*clefF4
*k[f#c#g#d#a#]
*M3/4
*MM104
=1-
8B
8B
8B
8B
(12B
12F#
12D#)
*M2/4
=2
8B
8B
8B
8B
=3
8B
8B
4B
=4
8B
8B
8B
8B
=5
(12B
12F#
12D#)
(12F#
12D#
12C#)
=6
8BB
8BB
8BB
8BB
=7
8BB
8BB
8.BB
16B
*M3/4
=8
8F#
8F#
8F#
8F#
4F#
*M2/4
=9
8.F#
16B
(12F#
12F#
12F#)
*M3/4
=10
8F#
[8D#
8D#]
8D#
(12D#
12C#
12BB)
*M2/4
=11
8C#
8C#
8C#
8r
=12
8D#
8C#
4C#
=13
8BB
8BB
4BB
=14
2BB
=15
8BB
8BB
8BB
8BB
=16
4BB
4BB
=17
2BB
==
*-
!!!CNT: Hidatsa
!!!TXO: Hidatsa
!!!OCY: United States
!!!OCL: Frances Densmore
!!!YOR: Frances Densmore, "Mandan and Hidatsa Music",
!!!YOR: Bulletin 80, page 117, No. 47
!!!PPR: Smithsonian Institution, Bureau of American Ethnology
!!!PPR: Government Printing Office
!!!PDT: 1923
!!!PPP: Washington, DC, United States of America
!!!YEC: Electronic Copyright 2000 David Huron
!!!YER: August 2000
!!!YEN: United States of America
!!!ENC: David Huron
!!!RDT: August 17, 2000
!!!EEV: Release 1.0
!!!AIN: tom, vox
